img/sys/4.svg

<svg width="32" height="25" viewBox="0 0 32 25" fill="none" xmlns="http://www.w3.org/2000/svg">
<g clip-path="url(#clip0_1_88)">
<path d="M6.1186 24.4474V22.8547C6.1186 22.2454 5.7463 21.8464 5.10719 21.8464C4.78764 21.8464 4.44016 21.9516 4.20127 22.298C4.01512 22.0072 3.74831 21.8464 3.34809 21.8464C3.08127 21.8464 2.81446 21.9268 2.60349 22.2176V21.899H2.04504V24.4474H2.60349V23.0402C2.60349 22.5887 2.84238 22.3753 3.21468 22.3753C3.58698 22.3753 3.77313 22.6134 3.77313 23.0402V24.4474H4.33157V23.0402C4.33157 22.5887 4.59839 22.3753 4.94276 22.3753C5.31506 22.3753 5.50121 22.6134 5.50121 23.0402V24.4474H6.1186ZM14.4022 21.899H13.4963V21.1289H12.9379V21.899H12.4322V22.4031H12.9379V23.5722C12.9379 24.1567 13.1768 24.5 13.8159 24.5C14.0548 24.5 14.3216 24.4196 14.5077 24.3145L14.3464 23.8351C14.1851 23.9402 13.9989 23.9681 13.8655 23.9681C13.5987 23.9681 13.4932 23.8072 13.4932 23.5444V22.4031H14.3991V21.899H14.4022ZM19.1428 21.8433C18.8233 21.8433 18.6092 22.0041 18.4758 22.2145V21.8959H17.9173V24.4444H18.4758V23.0093C18.4758 22.5856 18.6619 22.3444 19.0094 22.3444C19.1149 22.3444 19.2483 22.3722 19.3569 22.3969L19.5182 21.865C19.4065 21.8433 19.2483 21.8433 19.1428 21.8433ZM11.9792 22.1093C11.7124 21.9237 11.3401 21.8433 10.9399 21.8433C10.3007 21.8433 9.87571 22.1619 9.87571 22.666C9.87571 23.0897 10.1953 23.331 10.7537 23.4083L11.0205 23.4361C11.3122 23.4887 11.4735 23.5691 11.4735 23.7021C11.4735 23.8877 11.2594 24.0206 10.8871 24.0206C10.5148 24.0206 10.2201 23.8877 10.0339 23.7547L9.76712 24.1784C10.0588 24.3918 10.459 24.4969 10.8592 24.4969C11.6038 24.4969 12.0319 24.1505 12.0319 23.6743C12.0319 23.2227 11.6845 22.9846 11.1539 22.9042L10.8871 22.8763C10.6482 22.8485 10.4621 22.7959 10.4621 22.6382C10.4621 22.4526 10.6482 22.3474 10.943 22.3474C11.2625 22.3474 11.5821 22.4804 11.7434 22.5609L11.9792 22.1093ZM26.837 21.8433C26.5174 21.8433 26.3034 22.0041 26.1699 22.2145V21.8959H25.6115V24.4444H26.1699V23.0093C26.1699 22.5856 26.3561 22.3444 26.7036 22.3444C26.8091 22.3444 26.9425 22.3722 27.051 22.3969L27.2124 21.8712C27.1038 21.8433 26.9456 21.8433 26.837 21.8433ZM19.7013 23.1732C19.7013 23.9433 20.2349 24.5 21.0602 24.5C21.4325 24.5 21.6993 24.4196 21.9661 24.2093L21.6993 23.7578C21.4852 23.9186 21.2742 23.9959 21.0322 23.9959C20.5793 23.9959 20.2597 23.6773 20.2597 23.1732C20.2597 22.6938 20.5793 22.3753 21.0322 22.3505C21.2711 22.3505 21.4852 22.431 21.6993 22.5887L21.9661 22.1371C21.6993 21.9237 21.4325 21.8464 21.0602 21.8464C20.2349 21.8433 19.7013 22.4031 19.7013 23.1732ZM24.8669 23.1732V21.899H24.3085V22.2176C24.1223 21.9794 23.8555 21.8464 23.508 21.8464C22.7882 21.8464 22.2298 22.4031 22.2298 23.1732C22.2298 23.9433 22.7882 24.5 23.508 24.5C23.8803 24.5 24.1471 24.367 24.3085 24.1289V24.4474H24.8669V23.1732ZM22.8162 23.1732C22.8162 22.7217 23.1078 22.3505 23.5887 22.3505C24.0416 22.3505 24.3612 22.6969 24.3612 23.1732C24.3612 23.6248 24.0416 23.9959 23.5887 23.9959C23.1109 23.9681 22.8162 23.6217 22.8162 23.1732ZM16.1334 21.8433C15.3888 21.8433 14.8552 22.3753 14.8552 23.1701C14.8552 23.9681 15.3888 24.4969 16.1613 24.4969C16.5336 24.4969 16.9059 24.3918 17.2007 24.1505L16.9339 23.7516C16.7198 23.9124 16.453 24.0176 16.1893 24.0176C15.8418 24.0176 15.4974 23.8567 15.4167 23.4083H17.3062C17.3062 23.3279 17.3062 23.2753 17.3062 23.1949C17.331 22.3753 16.8501 21.8433 16.1334 21.8433ZM16.1334 22.3227C16.4809 22.3227 16.7198 22.5361 16.7725 22.932H15.4416C15.4943 22.5887 15.7332 22.3227 16.1334 22.3227ZM30.0077 23.1732V20.8907H29.4493V22.2176C29.2631 21.9794 28.9963 21.8464 28.6488 21.8464C27.9291 21.8464 27.3706 22.4031 27.3706 23.1732C27.3706 23.9433 27.9291 24.5 28.6488 24.5C29.0211 24.5 29.2879 24.367 29.4493 24.1289V24.4474H30.0077V23.1732ZM27.957 23.1732C27.957 22.7217 28.2486 22.3505 28.7295 22.3505C29.1825 22.3505 29.502 22.6969 29.502 23.1732C29.502 23.6248 29.1825 23.9959 28.7295 23.9959C28.2486 23.9681 27.957 23.6217 27.957 23.1732ZM9.26142 23.1732V21.899H8.70297V22.2176C8.51682 21.9794 8.25001 21.8464 7.90253 21.8464C7.18275 21.8464 6.62431 22.4031 6.62431 23.1732C6.62431 23.9433 7.18275 24.5 7.90253 24.5C8.27483 24.5 8.54164 24.367 8.70297 24.1289V24.4474H9.26142V23.1732ZM7.18586 23.1732C7.18586 22.7217 7.47749 22.3505 7.95837 22.3505C8.41134 22.3505 8.73089 22.6969 8.73089 23.1732C8.73089 23.6248 8.41134 23.9959 7.95837 23.9959C7.47749 23.9681 7.18586 23.6217 7.18586 23.1732Z" fill="#4F4255"/>
<path d="M20.1821 2.54431H11.793V17.5691H20.1821V2.54431Z" fill="#4F4255"/>
<path d="M12.3515 10.0567C12.3515 7.00412 13.791 4.29485 16 2.54433C14.3743 1.2701 12.3236 0.5 10.0867 0.5C4.78763 0.5 0.5 4.77423 0.5 10.0567C0.5 15.3392 4.78763 19.6134 10.0867 19.6134C12.3236 19.6134 14.3743 18.8433 16 17.5691C13.7879 15.8433 12.3515 13.1093 12.3515 10.0567Z" fill="#4F4255"/>
<path d="M31.5 10.0567C31.5 15.3392 27.2124 19.6134 21.9133 19.6134C19.6764 19.6134 17.6257 18.8433 16 17.5691C18.2369 15.8155 19.6485 13.1093 19.6485 10.0567C19.6485 7.00412 18.209 4.29485 16 2.54433C17.6226 1.2701 19.6733 0.5 21.9102 0.5C27.2124 0.5 31.5 4.80206 31.5 10.0567Z" fill="#4F4255"/>
</g>
<defs>
<clipPath id="clip0_1_88">
<rect width="31" height="24" fill="white" transform="translate(0.5 0.5)"/>
</clipPath>
</defs>
</svg>

<svg width="32" height="25" fill="none" xmlns="http://www.w3.org/2000/svg"><g clip-path="url(#clip0_1_88)" fill="#4F4255"><path d="M6.119 24.447v-1.592c0-.61-.373-1.009-1.012-1.009-.32 0-.667.106-.906.452-.186-.29-.453-.452-.853-.452a.859.859 0 00-.745.372v-.319h-.558v2.548h.558V23.04c0-.451.24-.665.612-.665s.558.238.558.665v1.407h.559V23.04c0-.451.266-.665.61-.665.373 0 .56.238.56.665v1.407h.617zm8.283-2.548h-.906v-.77h-.558v.77h-.506v.504h.506v1.17c0 .584.239.927.878.927.239 0 .506-.08.692-.186l-.162-.479a.896.896 0 01-.48.133c-.267 0-.373-.16-.373-.424v-1.14h.906v-.505h.003zm4.74-.056a.755.755 0 00-.666.372v-.32h-.559v2.55h.559v-1.436c0-.423.186-.665.533-.665.106 0 .24.028.348.053l.161-.532c-.111-.022-.27-.022-.375-.022zm-7.163.266c-.267-.185-.639-.266-1.04-.266-.638 0-1.063.319-1.063.823 0 .424.32.665.878.742l.267.028c.291.053.452.133.452.266 0 .186-.214.319-.586.319s-.667-.133-.853-.266l-.267.423c.292.214.692.319 1.092.319.745 0 1.173-.346 1.173-.823 0-.451-.348-.69-.878-.77l-.267-.028c-.239-.027-.425-.08-.425-.238 0-.185.186-.29.481-.29.32 0 .64.132.8.213l.236-.452zm14.858-.266a.756.756 0 00-.667.372v-.32h-.559v2.55h.559v-1.436c0-.423.186-.665.534-.665.105 0 .238.028.347.053l.161-.526c-.108-.028-.266-.028-.375-.028zm-7.136 1.33c0 .77.534 1.327 1.36 1.327.372 0 .638-.08.905-.29l-.267-.452a1.07 1.07 0 01-.667.238c-.453 0-.772-.319-.772-.823 0-.48.32-.798.772-.822.24 0 .453.08.667.238l.267-.452c-.267-.213-.534-.29-.906-.29-.825-.004-1.359.556-1.359 1.326zm5.166 0V21.9h-.559v.319c-.186-.239-.453-.372-.8-.372-.72 0-1.278.557-1.278 1.327 0 .77.558 1.327 1.278 1.327.372 0 .64-.133.8-.371v.318h.559v-1.274zm-2.05 0c0-.451.29-.822.772-.822.453 0 .772.346.772.822 0 .452-.32.823-.772.823-.478-.028-.773-.374-.773-.823zm-6.684-1.33c-.744 0-1.278.532-1.278 1.327 0 .798.534 1.327 1.306 1.327.373 0 .745-.105 1.04-.346l-.267-.4a1.271 1.271 0 01-.745.267c-.347 0-.692-.161-.772-.61h1.89v-.213c.024-.82-.457-1.352-1.174-1.352zm0 .48c.348 0 .587.213.64.609h-1.331c.052-.343.291-.61.691-.61zm13.875.85v-2.282h-.559v1.327c-.186-.239-.453-.372-.8-.372-.72 0-1.278.557-1.278 1.327 0 .77.558 1.327 1.278 1.327.372 0 .639-.133.8-.371v.318h.559v-1.274zm-2.051 0c0-.451.292-.822.773-.822.453 0 .772.346.772.822 0 .452-.32.823-.772.823-.481-.028-.773-.374-.773-.823zm-18.696 0V21.9h-.558v.319c-.186-.239-.453-.372-.8-.372-.72 0-1.279.557-1.279 1.327 0 .77.559 1.327 1.279 1.327.372 0 .639-.133.8-.371v.318h.558v-1.274zm-2.075 0c0-.451.291-.822.772-.822.453 0 .773.346.773.822 0 .452-.32.823-.773.823-.48-.028-.772-.374-.772-.823zM20.182 2.544h-8.389V17.57h8.39V2.544z"/><path d="M12.351 10.057c0-3.053 1.44-5.762 3.649-7.513A9.554 9.554 0 0010.087.5C4.787.5.5 4.774.5 10.057c0 5.282 4.288 9.556 9.587 9.556 2.237 0 4.287-.77 5.913-2.044a9.527 9.527 0 01-3.649-7.512zm19.149 0c0 5.282-4.288 9.556-9.587 9.556A9.554 9.554 0 0116 17.57a9.494 9.494 0 003.648-7.512c0-3.053-1.439-5.762-3.648-7.513A9.539 9.539 0 0121.91.5c5.302 0 9.59 4.302 9.59 9.557z"/></g><defs><clipPath id="clip0_1_88"><path fill="#fff" transform="translate(.5 .5)" d="M0 0h31v24H0z"/></clipPath></defs></svg>
